48x48/apps/net.mediaarea.QCTools.svg

<svg xmlns="http://www.w3.org/2000/svg" width="48" height="48" version="1.1">
 <rect style="opacity:0.2" width="44" height="28" x="2" y="11" rx="2" ry="2"/>
 <rect style="fill:#858585" width="44" height="28" x="2" y="10" rx="2" ry="2"/>
 <rect style="opacity:0.1" width="40" height="22" x="4" y="15" rx="1.818" ry="1.571"/>
 <rect style="fill:#ccdfd8" width="40" height="22" x="4" y="14" rx="1.818" ry="1.571"/>
 <path style="fill:#17191e" d="m 33,18 a 8,8 0 0 0 -8,8 8,8 0 0 0 8,8 8,8 0 0 0 7.041016,-4.21875 L 39,29 37.603516,27.953125 A 5,5 0 0 1 33,31 a 5,5 0 0 1 -5,-5 5,5 0 0 1 5,-5 5,5 0 0 1 4.599609,3.050781 L 39,23 40.046875,22.214844 A 8,8 0 0 0 33,18 Z"/>
 <circle style="fill:#17191e" cx=".49" cy="29.151" r="8" transform="rotate(-30)"/>
 <path style="fill:#17191e" d="m 16.615234,25.822266 -1.064453,2.804687 c 0,0 -0.115847,0.869873 2.041585,2.058594 1.078717,0.59436 2.117586,1.277092 2.751953,1.869141 1.197101,0.985759 0.211454,1.566734 -0.552734,2.058593 -0.805482,0.340238 -2.076564,0.557576 -3.503906,0.705078 -2.854684,0.295005 -3.921433,0.190538 -6.4478353,2.083985 C 7.8385008,38.902277 6.4080716,40.512427 6.0605469,43.242188 6.0287871,43.491656 6.0095769,43.745465 6,44 h 1.6121326 c 0.00498,-0.127984 0.00976,-0.256142 0.025391,-0.378906 0.2611581,-2.051362 2.1457286,-4.125658 4.0011484,-5.516226 1.227046,-0.919627 1.93096,-1.189179 4.957601,-1.501954 2.43095,-0.42862 6.95635,-1.038502 7.345703,-2.595102 0.336233,-1.545549 -0.595473,-2.754906 -1.550781,-3.646484 -0.955311,-0.891578 -2.153297,-1.642503 -3.351563,-2.302734 -2.396533,-1.320462 -2.424398,-2.236328 -2.424398,-2.236328 z"/>
 <circle style="opacity:0.2" cx="-.01" cy="30.017" r="5" transform="rotate(-30)"/>
 <circle style="fill:#939393" cx=".49" cy="29.151" r="5" transform="rotate(-30)"/>
 <circle style="fill:#0062c9" cx=".49" cy="29.151" r="2" transform="rotate(-30)"/>
 <circle style="fill:#17191e" cx=".54" cy="25.901" r=".75" transform="rotate(-30)"/>
 <circle style="fill:#17191e" cx="-2.66" cy="30.401" r=".75" transform="rotate(-30)"/>
 <circle style="fill:#17191e" cx="3.64" cy="30.401" r=".75" transform="rotate(-30)"/>
 <path style="opacity:0.1;fill:#f4f4f7" d="M 4 10 C 2.892 10 2 10.892 2 12 L 2 13 C 2 11.892 2.892 11 4 11 L 44 11 C 45.108 11 46 11.892 46 13 L 46 12 C 46 10.892 45.108 10 44 10 L 4 10 z"/>
 <path style="opacity:0.2;fill:#f4f4f7" d="M 5.8183594 14 C 4.8110867 14 4 14.701694 4 15.572266 L 4 16.572266 C 4 15.701694 4.8110867 15 5.8183594 15 L 42.181641 15 C 43.188913 15 44 15.701694 44 16.572266 L 44 15.572266 C 44 14.701694 43.188913 14 42.181641 14 L 5.8183594 14 z"/>
</svg>

<svg xmlns="http://www.w3.org/2000/svg" width="48" height="48"><rect style="opacity:.2" width="44" height="28" x="2" y="11" rx="2" ry="2"/><rect style="fill:#858585" width="44" height="28" x="2" y="10" rx="2" ry="2"/><rect style="opacity:.1" width="40" height="22" x="4" y="15" rx="1.818" ry="1.571"/><rect style="fill:#ccdfd8" width="40" height="22" x="4" y="14" rx="1.818" ry="1.571"/><path style="fill:#17191e" d="M33 18a8 8 0 0 0-8 8 8 8 0 0 0 8 8 8 8 0 0 0 7.041-4.219L39 29l-1.396-1.047A5 5 0 0 1 33 31a5 5 0 0 1-5-5 5 5 0 0 1 5-5 5 5 0 0 1 4.6 3.05L39 23l1.047-.785A8 8 0 0 0 33 18z"/><circle style="fill:#17191e" cx=".49" cy="29.151" r="8" transform="rotate(-30)"/><path style="fill:#17191e" d="m16.615 25.822-1.064 2.805s-.116.87 2.041 2.059c1.08.594 2.118 1.277 2.752 1.869 1.197.985.212 1.566-.552 2.058-.806.34-2.077.558-3.504.705-2.855.295-3.922.19-6.448 2.084-2.001 1.5-3.432 3.11-3.78 5.84A8.56 8.56 0 0 0 6 44h1.612c.005-.128.01-.256.026-.379.26-2.051 2.145-4.126 4-5.516 1.228-.92 1.932-1.19 4.958-1.502 2.431-.429 6.957-1.039 7.346-2.595.336-1.546-.595-2.755-1.55-3.647-.956-.891-2.154-1.642-3.352-2.302-2.397-1.32-2.425-2.237-2.425-2.237z"/><circle style="opacity:.2" cx="-.01" cy="30.017" r="5" transform="rotate(-30)"/><circle style="fill:#939393" cx=".49" cy="29.151" r="5" transform="rotate(-30)"/><circle style="fill:#0062c9" cx=".49" cy="29.151" r="2" transform="rotate(-30)"/><circle style="fill:#17191e" cx=".54" cy="25.901" r=".75" transform="rotate(-30)"/><circle style="fill:#17191e" cx="-2.66" cy="30.401" r=".75" transform="rotate(-30)"/><circle style="fill:#17191e" cx="3.64" cy="30.401" r=".75" transform="rotate(-30)"/><path style="opacity:.1;fill:#f4f4f7" d="M4 10c-1.108 0-2 .892-2 2v1c0-1.108.892-2 2-2h40c1.108 0 2 .892 2 2v-1c0-1.108-.892-2-2-2H4z"/><path style="opacity:.2;fill:#f4f4f7" d="M5.818 14C4.811 14 4 14.702 4 15.572v1C4 15.702 4.811 15 5.818 15h36.364c1.007 0 1.818.702 1.818 1.572v-1c0-.87-.811-1.572-1.818-1.572H5.818z"/></svg>
